src/images/illustration-handshake.svg

<svg width="224" height="131" viewBox="0 0 224 131" fill="none" xmlns="http://www.w3.org/2000/svg">
<path d="M119.4 129L165.6 82.7999L141.6 58.7999L132.2 68.1999H91.0999L74.8999 84.4999C74.8999 84.4999 119.5 128.8 119.4 129Z" fill="#E8BE98"/>
<g opacity="0.4">
<path opacity="0.4" d="M141.6 58.7999L137.3 63.0999L156.2 90.4999L164.7 81.8999L141.6 58.7999Z" fill="#B88F77"/>
</g>
<path d="M119.4 129L165.6 82.7999L141.6 58.7999L132.2 68.1999H91.0999L74.8999 84.4999C74.8999 84.4999 119.5 128.8 119.4 129Z" stroke="#4D4D4D" stroke-width="3" stroke-miterlimit="10" stroke-linejoin="round"/>
<path d="M170.5 84.3L220.9 33.9C221.8 33 221.9 31.5 221 30.6L193.6 3.19996C192.7 2.29996 191.3 2.39995 190.3 3.29995L139.9 53.7C139 54.6 138.9 56.1 139.8 57L167.2 84.4C168.1 85.3 169.6 85.3 170.5 84.3Z" fill="#2BD1B8" stroke="#4D4D4D" stroke-width="3" stroke-miterlimit="10" stroke-linecap="round" stroke-linejoin="round"/>
<path d="M168.995 84.5492L185.258 68.2859L155.277 38.3049L139.014 54.5682L168.995 84.5492Z" fill="#88DCCF"/>
<path d="M171.5 52.8999L154.4 69.9999" stroke="#4D4D4D" stroke-width="3" stroke-miterlimit="10" stroke-linecap="round" stroke-linejoin="round"/>
<path d="M181.8 63.2L164.7 80.3" stroke="#4D4D4D" stroke-width="3" stroke-miterlimit="10" stroke-linecap="round" stroke-linejoin="round"/>
<path d="M176.6 58L159.5 75.1" stroke="#4D4D4D" stroke-width="3" stroke-miterlimit="10" stroke-linecap="round" stroke-linejoin="round"/>
<path d="M166.4 47.7999L149.3 64.8999" stroke="#4D4D4D" stroke-width="3" stroke-miterlimit="10" stroke-linecap="round" stroke-linejoin="round"/>
<path d="M186.1 67.4999L156.1 37.4999" stroke="#4D4D4D" stroke-width="3" stroke-miterlimit="10" stroke-linecap="round" stroke-linejoin="round"/>
<path d="M161.2 42.6L144.1 59.7" stroke="#4D4D4D" stroke-width="3" stroke-miterlimit="10" stroke-linecap="round" stroke-linejoin="round"/>
<path d="M170.5 84.3L220.9 33.9C221.8 33 221.9 31.5 221 30.6L193.6 3.19996C192.7 2.29996 191.3 2.39995 190.3 3.29995L139.9 53.7C139 54.6 138.9 56.1 139.8 57L167.2 84.4C168.1 85.3 169.6 85.3 170.5 84.3Z" stroke="#4D4D4D" stroke-width="3" stroke-miterlimit="10" stroke-linecap="round" stroke-linejoin="round"/>
<path d="M152.3 109.7C154.4 107.6 154.4 104.1 152.3 102L151.9 101.6L143.3 93L140.7 90.4L129.9 79.5999C129.1 79.8999 128.3 80.1999 127.4 80.1999H102.8C99.4 80.1999 96.7 77.5 96.7 74.0999C96.7 71.2999 98.6 68.8999 101.3 68.1999H99.1L90.8 60C88.9 58.1 85.8 58.1 84 60L69.8 74.1999C67.9 76.0999 67.9 79.2 69.8 81L102.7 113.9L112.5 123.7L116.3 127.5C118.4 129.6 121.9 129.6 124 127.5C126.1 125.4 126.1 121.9 124 119.8L125.7 121.5C127.8 123.6 131.3 123.6 133.4 121.5C135.5 119.4 135.5 115.9 133.4 113.8L135.1 115.5C137.2 117.6 140.7 117.6 142.8 115.5C144.9 113.4 144.9 109.9 142.8 107.8L144.5 109.5C146.7 111.9 150.2 111.9 152.3 109.7Z" fill="#FCC5AF" stroke="#4D4D4D" stroke-width="3" stroke-miterlimit="10" stroke-linejoin="round"/>
<path opacity="0.2" d="M68 79.4L78.3 89.6L94.6 63.1L89.4 58L68 79.4Z" fill="#CD7652"/>
<path d="M152.3 109.7C154.4 107.6 154.4 104.1 152.3 102L151.9 101.6L143.3 93L140.7 90.4L129.9 79.5999C129.1 79.8999 128.3 80.1999 127.4 80.1999H102.8C99.4 80.1999 96.7 77.4999 96.7 74.0999C96.7 71.2999 98.6 68.8999 101.3 68.1999H99.1L90.8 60C88.9 58.1 85.8 58.1 84 60L69.8 74.1999C67.9 76.0999 67.9 79.2 69.8 81L102.7 113.9L112.5 123.7L116.3 127.5C118.4 129.6 121.9 129.6 124 127.5C126.1 125.4 126.1 121.9 124 119.8L125.7 121.5C127.8 123.6 131.3 123.6 133.4 121.5C135.5 119.4 135.5 115.9 133.4 113.8L135.1 115.5C137.2 117.6 140.7 117.6 142.8 115.5C144.9 113.4 144.9 109.9 142.8 107.8L144.5 109.5C146.7 111.9 150.2 111.9 152.3 109.7Z" stroke="#4D4D4D" stroke-width="3" stroke-miterlimit="10" stroke-linejoin="round"/>
<path d="M142.9 108L133.9 99" stroke="#4D4D4D" stroke-width="3" stroke-miterlimit="10" stroke-linecap="round" stroke-linejoin="round"/>
<path d="M133.5 114L127.9 108.5" stroke="#4D4D4D" stroke-width="3" stroke-miterlimit="10" stroke-linecap="round" stroke-linejoin="round"/>
<path d="M124.1 120L121.9 117.9" stroke="#4D4D4D" stroke-width="3" stroke-miterlimit="10" stroke-linecap="round" stroke-linejoin="round"/>
<path d="M99.4 117.6L98.2 116.4C96.6 114.8 96.6 112.3 98.2 110.7L103.7 105.2C105.3 103.6 107.8 103.6 109.4 105.2L110.6 106.4C112.2 108 112.2 110.5 110.6 112.1L105.1 117.6C103.5 119.2 101 119.2 99.4 117.6Z" fill="#E8BE98" stroke="#4D4D4D" stroke-width="3" stroke-miterlimit="10" stroke-linejoin="round"/>
<path d="M106.3 124.4L105.1 123.2C103.5 121.6 103.5 119.1 105.1 117.5L108.9 113.7C110.5 112.1 113 112.1 114.6 113.7L115.8 114.9C117.4 116.5 117.4 119 115.8 120.6L112 124.4C110.4 126 107.8 126 106.3 124.4Z" fill="#E8BE98" stroke="#4D4D4D" stroke-width="3" stroke-miterlimit="10" stroke-linejoin="round"/>
<path d="M85.7 103.9L84.5 102.7C82.9 101.1 82.9 98.6 84.5 97L88.3001 93.2C89.9001 91.6 92.4 91.6 94 93.2L95.2 94.4C96.8 96 96.8 98.5 95.2 100.1L91.4001 103.9C89.8001 105.5 87.3 105.5 85.7 103.9Z" fill="#E8BE98" stroke="#4D4D4D" stroke-width="3" stroke-miterlimit="10" stroke-linejoin="round"/>
<path d="M92.5999 110.8L91.4 109.6C89.8 108 89.8 105.5 91.4 103.9L97.6999 97.6C99.2999 96 101.8 96 103.4 97.6L104.6 98.8C106.2 100.4 106.2 102.9 104.6 104.5L98.3 110.8C96.7 112.3 94.1999 112.3 92.5999 110.8Z" fill="#E8BE98" stroke="#4D4D4D" stroke-width="3" stroke-miterlimit="10" stroke-linejoin="round"/>
<path d="M54.8 89.7L2.1 37C1.3 36.2 1.3 35 2.1 34.2L34.1 2.19998C34.9 1.39998 36.1 1.39998 36.9 2.19998L89.6 54.9C90.4 55.7 90.4 56.9 89.6 57.7L57.6 89.7C56.9 90.5 55.6 90.5 54.8 89.7Z" fill="#8A53D1" stroke="#4D4D4D" stroke-width="3" stroke-miterlimit="10" stroke-linejoin="round"/>
<path d="M54.7999 89.7L31.9999 66.9C31.1999 66.1 31.1999 64.9 31.9999 64.1L63.9999 32.1C64.7999 31.3 65.9999 31.3 66.7999 32.1L89.5999 54.9C90.3999 55.7 90.3999 56.9 89.5999 57.7L57.5999 89.7C56.8999 90.5 55.5999 90.5 54.7999 89.7Z" fill="#AB79EB" stroke="#4D4D4D" stroke-width="3" stroke-miterlimit="10" stroke-linecap="round" stroke-linejoin="round"/>
<path d="M51.8 74.8C54.451 74.8 56.6 72.6509 56.6 70C56.6 67.349 54.451 65.2 51.8 65.2C49.149 65.2 47 67.349 47 70C47 72.6509 49.149 74.8 51.8 74.8Z" fill="#E6CF8A" stroke="#4D4D4D" stroke-width="3" stroke-miterlimit="10" stroke-linejoin="round"/>
</svg>

<svg fill="none" height="131" viewBox="0 0 224 131" width="224" xmlns="http://www.w3.org/2000/svg"><path d="m119.4 129 46.2-46.2001-24-24-9.4 9.4h-41.1001l-16.2 16.3s44.6001 44.3001 44.5001 44.5001z" fill="#e8be98"/><path d="m141.6 58.7999-4.3 4.3 18.9 27.4 8.5-8.6z" fill="#b88f77" opacity=".16"/><path d="m119.4 129 46.2-46.2001-24-24-9.4 9.4h-41.1001l-16.2 16.3s44.6001 44.3001 44.5001 44.5001z" stroke="#4d4d4d" stroke-linejoin="round" stroke-miterlimit="10" stroke-width="3"/><path d="m170.5 84.3 50.4-50.4c.9-.9 1-2.4.1-3.3l-27.4-27.40004c-.9-.9-2.3-.80001-3.3.09999l-50.4 50.40005c-.9.9-1 2.4-.1 3.3l27.4 27.4c.9.9 2.4.9 3.3-.1z" style="fill:#2bd1b8;stroke:#4d4d4d;stroke-width:3;stroke-miterlimit:10;stroke-linecap:round;stroke-linejoin:round"/><path d="m168.995 84.5492 16.263-16.2633-29.981-29.981-16.263 16.2633z" fill="#88dccf"/><path d="m171.5 52.8999-17.1 17.1" stroke="#4d4d4d" stroke-linecap="round" stroke-linejoin="round" stroke-miterlimit="10" stroke-width="3"/><path d="m181.8 63.2-17.1 17.1" stroke="#4d4d4d" stroke-linecap="round" stroke-linejoin="round" stroke-miterlimit="10" stroke-width="3"/><path d="m176.6 58-17.1 17.1" stroke="#4d4d4d" stroke-linecap="round" stroke-linejoin="round" stroke-miterlimit="10" stroke-width="3"/><path d="m166.4 47.7999-17.1 17.1" stroke="#4d4d4d" stroke-linecap="round" stroke-linejoin="round" stroke-miterlimit="10" stroke-width="3"/><path d="m186.1 67.4999-30-30" stroke="#4d4d4d" stroke-linecap="round" stroke-linejoin="round" stroke-miterlimit="10" stroke-width="3"/><path d="m161.2 42.6-17.1 17.1" stroke="#4d4d4d" stroke-linecap="round" stroke-linejoin="round" stroke-miterlimit="10" stroke-width="3"/><path d="m170.5 84.3 50.4-50.4c.9-.9 1-2.4.1-3.3l-27.4-27.40004c-.9-.9-2.3-.80001-3.3.09999l-50.4 50.40005c-.9.9-1 2.4-.1 3.3l27.4 27.4c.9.9 2.4.9 3.3-.1z" stroke="#4d4d4d" stroke-linecap="round" stroke-linejoin="round" stroke-miterlimit="10" stroke-width="3"/><path d="m152.3 109.7c2.1-2.1 2.1-5.6 0-7.7l-.4-.4-8.6-8.6-2.6-2.6-10.8-10.8001c-.8.3-1.6.6-2.5.6h-24.6c-3.4 0-6.1-2.6999-6.1-6.1 0-2.8 1.9-5.2 4.6-5.9h-2.2l-8.3-8.1999c-1.9-1.9-5-1.9-6.8 0l-14.2 14.1999c-1.9 1.9-1.9 5.0001 0 6.8001l32.9 32.9 9.8 9.8 3.8 3.8c2.1 2.1 5.6 2.1 7.7 0s2.1-5.6 0-7.7l1.7 1.7c2.1 2.1 5.6 2.1 7.7 0s2.1-5.6 0-7.7l1.7 1.7c2.1 2.1 5.6 2.1 7.7 0s2.1-5.6 0-7.7l1.7 1.7c2.2 2.4 5.7 2.4 7.8.2z" fill="#fcc5af" stroke="#4d4d4d" stroke-linejoin="round" stroke-miterlimit="10" stroke-width="3"/><path d="m68 79.4 10.3 10.2 16.3-26.5-5.2-5.1z" fill="#cd7652" opacity=".2"/><g stroke="#4d4d4d" stroke-linejoin="round" stroke-miterlimit="10" stroke-width="3"><path d="m152.3 109.7c2.1-2.1 2.1-5.6 0-7.7l-.4-.4-8.6-8.6-2.6-2.6-10.8-10.8001c-.8.3-1.6.6-2.5.6h-24.6c-3.4 0-6.1-2.7-6.1-6.1 0-2.8 1.9-5.2 4.6-5.9h-2.2l-8.3-8.1999c-1.9-1.9-5-1.9-6.8 0l-14.2 14.1999c-1.9 1.9-1.9 5.0001 0 6.8001l32.9 32.9 9.8 9.8 3.8 3.8c2.1 2.1 5.6 2.1 7.7 0s2.1-5.6 0-7.7l1.7 1.7c2.1 2.1 5.6 2.1 7.7 0s2.1-5.6 0-7.7l1.7 1.7c2.1 2.1 5.6 2.1 7.7 0s2.1-5.6 0-7.7l1.7 1.7c2.2 2.4 5.7 2.4 7.8.2z"/><path d="m142.9 108-9-9" stroke-linecap="round"/><path d="m133.5 114-5.6-5.5" stroke-linecap="round"/><path d="m124.1 120-2.2-2.1" stroke-linecap="round"/><path d="m99.4 117.6-1.2-1.2c-1.6-1.6-1.6-4.1 0-5.7l5.5-5.5c1.6-1.6 4.1-1.6 5.7 0l1.2 1.2c1.6 1.6 1.6 4.1 0 5.7l-5.5 5.5c-1.6 1.6-4.1 1.6-5.7 0z" fill="#e8be98"/><path d="m106.3 124.4-1.2-1.2c-1.6-1.6-1.6-4.1 0-5.7l3.8-3.8c1.6-1.6 4.1-1.6 5.7 0l1.2 1.2c1.6 1.6 1.6 4.1 0 5.7l-3.8 3.8c-1.6 1.6-4.2 1.6-5.7 0z" fill="#e8be98"/><path d="m85.7 103.9-1.2-1.2c-1.6-1.6-1.6-4.1 0-5.7l3.8001-3.8c1.6-1.6 4.0999-1.6 5.6999 0l1.2 1.2c1.6 1.6 1.6 4.1 0 5.7l-3.7999 3.8c-1.6 1.6-4.1001 1.6-5.7001 0z" fill="#e8be98"/><path d="m92.5999 110.8-1.1999-1.2c-1.6-1.6-1.6-4.1 0-5.7l6.2999-6.3c1.6-1.6 4.1001-1.6 5.7001 0l1.2 1.2c1.6 1.6 1.6 4.1 0 5.7l-6.3 6.3c-1.6 1.5-4.1001 1.5-5.7001 0z" fill="#e8be98"/><path d="m54.8 89.7-52.7-52.7c-.8-.8-.8-2 0-2.8l32-32.00002c.8-.8 2-.8 2.8 0l52.7 52.70002c.8.8.8 2 0 2.8l-32 32c-.7.8-2 .8-2.8 0z" fill="#8a53d1"/><path d="m54.7999 89.7-22.8-22.8c-.8-.8-.8-2 0-2.8l32-32c.8-.8 2-.8 2.8 0l22.8 22.8c.8.8.8 2 0 2.8l-32 32c-.7.8-2 .8-2.8 0z" fill="#ab79eb" stroke-linecap="round"/><path d="m51.8 74.8c2.651 0 4.8-2.1491 4.8-4.8 0-2.651-2.149-4.8-4.8-4.8s-4.8 2.149-4.8 4.8c0 2.6509 2.149 4.8 4.8 4.8z" fill="#e6cf8a"/></g></svg>
